img/latswed_logo.svg

<svg id="essiv787etdd1" xmlns="http://www.w3.org/2000/svg" xmlns:xlink="http://www.w3.org/1999/xlink" viewBox="0 0 610.629000 687.694000" shape-rendering="geometricPrecision" text-rendering="geometricPrecision"><style><![CDATA[#essiv787etdd4 {animation: essiv787etdd4__sz 10000ms linear infinite normal forwards}@keyframes essiv787etdd4__sz { 0% {width: 83.700000px;height: 83.700000px} 3% {width: 83.700000px;height: 12.975838px} 6% {width: 83.700000px;height: 83.700000px} 100% {width: 83.700000px;height: 83.700000px} }#essiv787etdd4_to {animation: essiv787etdd4_to__to 10000ms linear infinite normal forwards}@keyframes essiv787etdd4_to__to { 0% {transform: translate(1288.109985px,451.083008px)} 3% {transform: translate(1287.815225px,493.048072px)} 6% {transform: translate(1288.109985px,451.083008px)} 100% {transform: translate(1288.109985px,451.083008px)} }]]></style><g id="essiv787etdd2" transform="matrix(1 0 0 1 -915.32702636718750 -175.08000183105469)"><rect id="essiv787etdd3" width="83.700000" height="298.767000" rx="0" ry="0" transform="matrix(1 0 0 1 1076.62695312500000 451.08300781250000)" fill="rgb(23,203,148)" stroke="none" stroke-width="1"/><g id="essiv787etdd4_to" transform="translate(1288.109985,451.083008)"><rect id="essiv787etdd4" width="83.700000" height="83.700000" rx="0" ry="0" transform="translate(0,-0)" fill="rgb(23,203,148)" stroke="none" stroke-width="1"/></g><g id="essiv787etdd5" transform="matrix(1 0 0 1 915.32702636718750 175.08000183105469)"><g id="essiv787etdd6"><path id="essiv787etdd7" d="M305.350000,687.694000L305.350000,687.694000L305.315000,687.674000L305.280000,687.693000L305.249000,687.638000L0,518.435000L0.032000,518.378000L0.032000,169.316000L0,169.260000L305.247000,0.057000L305.279000,0L305.315000,0.019000L305.350000,0L305.382000,0.057000L610.629000,169.257000L610.598000,169.312000L610.598000,518.378000L610.629000,518.433000L305.383000,687.633000L305.351000,687.691000ZM305.314000,595.203000L305.314000,595.203000L305.341000,595.219000L305.366000,595.175000L528.516000,471.480000L528.493000,471.439000L528.493000,216.255000L528.516000,216.213000L305.365000,92.518000L305.341000,92.475000L305.315000,92.490000L305.288000,92.475000L305.264000,92.518000L82.112000,216.214000L82.135000,216.255000L82.135000,471.439000L82.112000,471.480000L305.265000,595.180000L305.288000,595.221000L305.313000,595.207000Z" fill="rgb(23,203,148)" stroke="none" stroke-width="1"/></g><rect id="essiv787etdd8" width="82.450000" height="154.133000" rx="0" ry="0" transform="matrix(-1 0 -0 -1 541.69702148437500 154.13400268554688)" fill="rgb(23,203,148)" stroke="none" stroke-width="1"/></g></g></svg>

<svg xmlns="http://www.w3.org/2000/svg" width="610.629" height="687.694" viewBox="0 0 610.629 687.694">
  <g id="Group_51" data-name="Group 51" transform="translate(-915.327 -175.08)">
    <rect id="Rectangle_78" data-name="Rectangle 78" width="83.697" height="298.764" transform="translate(1076.627 451.083)" fill="#17cb94"/>
    <rect id="Rectangle_79" data-name="Rectangle 79" width="83.697" height="83.697" transform="translate(1288.11 451.083)" fill="#17cb94"/>
    <g id="Group_25" data-name="Group 25" transform="translate(915.327 175.08)">
      <g id="Group_11" data-name="Group 11" transform="translate(0 0)">
        <path id="Subtraction_1" data-name="Subtraction 1" d="M305.35,687.694h0l-.035-.02-.035.019-.031-.055L0,518.435l.032-.057V169.316L0,169.26,305.247.057,305.279,0l.036.019L305.35,0l.032.057,305.247,169.2-.031.055V518.378l.031.055-305.246,169.2-.032.058Zm-.036-92.491h0l.027.016.025-.044L528.516,471.48l-.023-.041V216.255l.023-.042L305.365,92.518l-.024-.043-.026.015-.027-.015-.024.043L82.112,216.214l.023.041V471.439l-.023.041,223.153,123.7.023.041.025-.014Z" transform="translate(0)" fill="#17cb94"/>
      </g>
      <rect id="Rectangle_80" data-name="Rectangle 80" width="82.443" height="154.131" transform="translate(541.697 154.134) rotate(-180)" fill="#17cb94"/>
    </g>
  </g>
</svg>
